!!!OTL: O WEH DER ZEIT DIE ICH VERZEHRT
!!!ARE: Europa, Mitteleuropa, Deutschland
!!!SCT: E0470
!!!YEM: Copyright 1995, estate of Helmut Schaffrath.
**kern
*ICvox
*Ivox
*M3/4
*k[b-]
*F:
{4f
=1
2f
4g
=2
2a
4f
=3
2a
4b-
=4
2cc}
{4cc
=5
2a
4dd
=6
2cc
4b-
=7
4a
8g
8f
4g
=8
2f}
{4f
=9
2f
4g
=10
2a
4f
=11
2a
4b-
=12
2cc}
{4cc
=13
2a
4dd
=14
2cc
4b-
=15
4a
8g
8f
4g
=16
2f}
{4f
=17
2a
4a
=18
4.g
8a
4b-
=19
2cc
4b-
=20
2cc}
{4cc
=21
2cc
4cc
=22
2dd
4dd
=23
4cc
8b-
8a
4b-
=24
2a}
{4a
=25
2a
4f
=26
2g}
{4cc
=27
2dd
4dd
=28
4.cc
8b-
8a
8g
=29
4f
2b-
=30
4a
2g
=31
2f}
==
!!!AGN: Liebes - Lied, Klage
!!!ONB: ESAC (Essen Associative Code) Database: ERK1
!!!AMT: simple triple
!!!AIN: vox
!!!EED: Helmut Schaffrath
!!!EEV: 1.0
*-
